!!!ONB: MCCC : ICS0003_06 : Extracted Monophonic Melody
!!!COM: Saint-Saëns, Camille
!!!OPR: Album
!!!OMV: 6
!!!SCT: Op.72
!!!ODT: 1884///
**kern
*staff1
*clefG2
*k[f#c#g#d#]
*E:
*M3/4
4b
=2
4cc#
4cc#
4dd#
=3
8ee
8ff#
4gg#
4b
=4
8b
8a
4a
4a
=5
2a
4g#
=6
8g#
8f#
8a
8g#
8f#
8e
=7
2d#
8e
8f#
=8
8g#
8a#
4b
4cc#
=9
4cc#
4b
4b
=10
4cc#
4cc#
4dd#
=11
8ee
8ff#
4gg#
4bb
=12
8bb
8aa
4aa
4aa
=13
2aa
4gg#
=14
8gg#
8ff#
8aa
8gg#
8ff#
8ee
=15
2dd#
8ee
8ff#
=16
8gg#
8aa#
4bb
4ccc#
=17
4ccc#
4bb
4bb
=18
2.bb
=19
2bb
8g#
8a
=20
8b
8dd
8cc#
8b
8a
8g#
=21
8f#
8e#
4g#
4aa
=22
2.aa
=23
2aa
8f#
8g
=24
8a
8b#
8b
8a
8f#
8e
=25
8d#
8f#
4b
4gg[
=26
4gg]
4gg
4gg
=27
2gg
4gg[
=28
4gg]
4gg
4gg
=29
2gg
4gg[
=30
4gg]
4aa#
4aa#
=31
2aa#
4aa#[
=32
2aa#]
4aa#[
=33
2aa#]
4aa#[
=34
2aa#]
4bb[
=35
2bb]
8b
8cc#
=36
8dd#
8ee
8ff#
8gg#
8aa
8bb
=37
8ccc#
8ddd
4ddd#
4bb
=38
4ccc#
4ccc#
4ddd#
=39
8eee
8fff#
4ggg#
4b
=40
8b
8a
4a
4ccc#
=41
4a
4ddd#
4eee
=42
8g#
8f#
8a
8g#
8f#
8e
=43
2d#
4b[
=44
8b]
8a
8cc#
8b
8a
8g#
=45
2g
4ee[
=46
8ee]
8ddd#
8fff#
8eee
8ddd#
8ccc#
=47
8bb
8aa#
8ccc#
8bb
8aa
8gg#
=48
8bb
8aa
8gg#
8ff#
8aa
8gg#
=49
8ff#
8ee
8dd#
8cc#
8b
8a#
=50
2.ee#
=51
2.dd#
=52
2.ee
=53
2.a#
=54
4b
4a
4g#
=55
4gg#
4ff#
4ee
=56
2.ee#
=57
2dd#
8dd#
8aa
=58
*M4/4
2.eee#
4r
=59
*M3/4
2.r
=60
*M4/4
1r
=61
*M3/4
20a#
20b
20b#
20dd#
20ee
20ff#
20ee
20dd#
20b#
20b
20a#
20b
20b#
20dd#
20ee
=62
20ff#
20ee
20dd#
20b#
20b
20a#
20b
20b#
20dd#
20ee
20ff#
20ee
20dd#
20b#
20b
=63
20a#
20b
20b#
20dd#
20ee
20ee#
20ee
20dd
20b#
20b
20g#
20a
20a#
20b
20b#
=64
20dd#
20cc##
20b#
20b
20a
20f#
20g
20g#
20a
20b
20dd
20b#
20b
20a
20g
=65
20e#
20f#
20g
20g#
20a
20b#
20b
20a
20g
20f#
20d#
20e
20e#
20f#
20g
=66
20a#
20g
20f#
20e#
20e
20b
20g
20f#
20e#
20e
20cc#
20g
20f#
20e#
20e
=67
20d#
20e
20f#
20b
20B
4r
4r
=68
2.r
=69
20aa#
20bb
20bb#
20ddd#
20eee
20fff#
20eee
20ddd#
20bb#
20bb
20aa#
20bb
20bb#
20ddd#
20eee
=70
20fff#
20eee
20ddd#
20bb#
20bb
20aa#
20bb
20bb#
20ddd#
20eee
20fff#
20eee
20ddd#
20bb#
20bb
=71
20aa#
20bb
20bb#
20ddd#
20eee
20eee#
20eee
20ddd
20bb#
20bb
20gg#
20aa
20aa#
20bb
20bb#
=72
20ddd#
20ccc##
20bb#
20bb
20aa
20ff#
20gg
20gg#
20aa
20bb
20ddd
20bb#
20bb
20aa
20gg
=73
20ee#
20ff#
20gg
20gg#
20aa
20bb#
20bb
20aa
20gg
20ff#
20dd#
20ee
20ee#
20ff#
20gg
=74
20aa#
20gg
20ff#
20ee#
20ee
20dd#
20ee
20ee#
20ff#
20gg
20aa#
20gg
20ff#
20ee#
20ee
=75
20aa#
20gg
20ff#
20ee#
20ee
20bb
20gg
20ff#
20ee#
20ee
20ccc#
20gg
20ff#
20ee#
20ee
=76
20dd#
20ee
20ff#
20bb
20b
4r
4r
=77
20cc#
20dd
20dd#
20ff#
20gg
20aa
20gg
20ff#
20dd#
20dd
20cc#
20dd
20dd#
20ff#
20gg
=78
20aa
20gg
20ff#
20dd#
20dd
20cc#
20dd
20dd#
20ff#
20gg
20aa
20gg
20ff#
20dd#
20dd
=79
20cc#
20dd
20dd#
20ff#
20gg
20b
20b#
20dd#
20ee
20ff#
20a#
20b
20b#
20dd#
20ee
=80
20f#
20g
20g#
20b
20b#
20dd
20b#
20b
20g#
20g
20f#
20g
20g#
20b
20b#
=81
20dd
20b#
20b
20g#
20g
20f#
20g
20g#
20b
20b#
20dd
20b#
20b
20g#
20g
=82
20f#
20g
20g#
20b
20b#
20e
20e#
20g#
20a
20b
20d#
20e
20f#
20g#
20a
=83
20a#
20g
20f#
20e#
20e
20a#
20g
20f#
20e#
20e
20b
20g
20f#
20e#
20e
=84
20cc#
20g
20f#
20e#
20e
4r
4r
=85
20a#
20g
20f#
20e#
20e
20b
20g
20f#
20e#
20e
20b#
20g
20f#
20e#
20e
=86
16cc#
16g
16f#
16e#
4e
4r
=87
20dd
20b#
20b
20a#
20a
20dd#
20b#
20b
20a#
20a
20ee
20b#
20b
20a#
20a
=88
20ff#
20b#
20b
20a#
20a
4r
4r
=89
20dd#
20b#
20b
20a#
20a
20ee
20b#
20b
20a#
20a
20ee#
20b#
20b
20a#
20a
=90
20ff#
20b#
20b
20a#
20a
4r
4r
=91
20cc#
20dd
20dd#
20ff#
20gg
20aa
20gg
20ff#
20dd#
20dd
20cc#
20dd
20dd#
20ff#
20gg
=92
20aa
20gg
20ff#
20dd#
20dd
20cc#
20dd
20dd#
20ff#
20gg
20aa
20gg
20ff#
20dd#
20dd
=93
20cc#
20dd
20dd#
20ff#
20gg
20aa#
20gg
20ee#
20dd#
20dd
20b
20b#
20cc#
20dd
20dd#
=94
20ff#
20ee#
20dd#
20cc##
20b#
20g##
20a#
20b#
20cc#
20dd
20ee#
20ee
20dd
20b#
20b
=95
20g#
20a
20a#
20b
20b#
20dd#
20cc##
20b#
20a#
20a
20f#
20g
20g#
20a
20a#
=96
20cc#
20a#
20a
20g#
20g
20f#
20g
20g#
20a
20a#
20cc#
20a#
20a
20g#
20g
=97
20cc#
20a#
20a
20g#
20g
20dd
20a#
20a
20g#
20g
20ee
20a#
20a
20g#
20g
=98
20f#
20g
20g#
20a
20dd
4r
4r
=99
20ccc#
20ddd
20ddd#
20fff#
20ggg
20aaa
20ggg
20fff#
20ddd#
20ddd
20ccc#
20ddd
20ddd#
20fff#
20ggg
=100
20aaa
20ggg
20fff#
20ddd#
20ddd
20ccc#
20ddd
20ddd#
20fff#
20ggg
20aa#
20bb
20ccc#
20ddd
20eee#
=101
20aa
20aa#
20bb
20ddd
20ddd#
20eee#
20ddd#
20ddd
20bb
20aa#
20gg##
20aa#
20bb
20ddd
20ddd#
=102
20eee#
20ddd#
20ddd
20bb
20aa#
20gg##
20aa#
20bb#
20ccc##
20ddd#
20gg
20gg#
20bb
20bb#
20ddd
=103
20ff#
20gg
20gg#
20bb
20bb#
20ccc#
20aa#
20aa
20gg#
20gg
20ddd
20aa#
20aa
20gg#
20gg
=104
20ddd#
20aa#
20aa
20gg#
20gg
20eee
20aa#
20aa
20gg#
20gg
4r
=105
20f#
20g
20g#
20a
20a#
20cc#
20a#
20a
20g#
20g
20dd
20a#
20a
20g#
20g
=106
20dd#
20a#
20a
20g#
20g
20ee
20a#
20a
20g#
20g
4r
=107
20F#
20G
20G#
20A
20B#
20d#
20B#
20B
20A#
20A
20e
20B#
20B
20A#
20A
=108
20e#
20B#
20B
20A#
20A
20f#
20B#
20B
20A#
20A
4r
=109
20f#
20g
20g#
20a
20b#
20dd#
20b#
20b
20a#
20a
20ee
20b#
20b
20a#
20a
=110
20ee#
20b#
20b
20a#
20a
20ff#
20b#
20b
20a#
20a
4r
=111
2.r
=112
20B#
20B
20A#
20A
20F#
20B#
20c#
20d
20d#
20a
20d#
20d
20c#
20B#
20A
=113
20c#
20d
20d#
20e
20f#
20e
20d#
20d
20c#
20G
20e
20e#
20f#
20g
20cc#
=114
20g
20f#
20e#
20e
20A#
20g
20g#
20a
20a#
20ee
20a#
20a
20g#
20g
20c#
=115
20ee
20ee#
20ff#
20gg
20ccc#
20e
20e#
20f#
20g
20cc#
20c#
20d
20d#
20e#
20g
=116
20B#
20c##
20d#
20e
20g
4r
4r
=117
20GG
20E
20F#
20G
20A
20B
20e
20f#
20g
20a
20b
20ee
20ff#
20gg
20aa
=118
20bb
20eee
20ggg
20fff#
20eee
20ddd
20ggg
20fff#
20eee
20ddd
20bb#
20ggg
20eee
20ddd
20bb#
=119
20bb
20eee
20ddd
20bb#
20bb
20aa
20bb#
20bb
20aa
20gg
20ee#
20aa
20gg
20ee#
20ee
=120
20dd
20ee#
20ee
20dd
20b#
20b
20dd
20b#
20b
20a
20g#
20b
20a
20g#
20e#
=121
20e
20g#
20e#
20e
20d
20B#
20e
20d
20B#
20B
20A
20B#
20B
20A
20G
=122
20F#
20A
20G
20F#
20E
20D
20G
20F#
20E
20D
20BB#
20F#
20E
20D
20BB#
=123
2.r
=124
4r
4r
4B
=125
4c#
4f#
4d#
=126
8e
8f#
4g#
4b
=127
8b
8a
4a
4a
=128
2a
4g#
=129
8g#
8f#
8a
8g#
8f#
8e
=130
2d#
8e
8f#
=131
8g#
8a#
4b
4cc#
=132
4cc#
4b
4b
=133
4cc#
4cc#
4dd#
=134
8ee
8ff#
4gg#
4bb
=135
8bb
8aa
4aa
4aa
=136
2aa
4gg#
=137
8gg#
8ff#
8aa
8gg#
8ff#
8ee
=138
2dd#
8ee
8ff#
=139
8gg#
8aa#
4bb
4ccc#
=140
4ccc#
4bb
8bb
8bb
=141
8ee
8ee
8bb
8bb
8dd
8dd
=142
8bb
8bb
4cc#
8g#
8a
=143
8b
8dd
8cc#
8b
8a
8g#
=144
8f#
8e#
4g#
8aa
8aa
=145
8dd
8dd
8aa
8aa
8b#
8b#
=146
8aa
8aa
4b
8f#
8g
=147
8a
8b#
8b
8a
8f#
8e
=148
8d#
8f#
4b
4gg[
=149
4gg]
4gg
4gg
=150
2gg
4gg[
=151
4gg]
4gg
4gg
=152
2gg
4gg[
=153
4gg]
4aa#
4aa#
=154
2aa#
4aa#[
=155
2aa#]
4aa#[
=156
2aa#]
4aa#[
=157
2aa#]
4aa[
=158
2aa]
8b
8cc#
=159
8dd#
8ee
8ff#
8gg#
8aa
8bb
=160
8ccc#
8ddd
4ddd#
4bb
=161
4ccc#
4ccc#
4ddd#
=162
8eee
8fff#
4ggg#
4bb
=163
8bb
8aa
4aa
4aa
=164
2aa
4gg#
=165
8gg#
8ff#
8aa
8gg#
8ff#
8ee
=166
2dd#
4bb[
=167
8bb]
8aa
8ccc#
8bb
8aa
8gg#
=168
2gg
4eee[
=169
8eee]
8dddd#
8ffff#
8eeee
8dddd#
8cccc#
=170
8bbb
8aaa#
8cccc#
8bbb
8aaa
8ggg#
=171
8bbb
8aaa
8ggg#
8fff#
8aaa
8ggg#
=172
8fff#
8eee
8ddd#
8ccc#
8bb
8aa#
=173
2.eee#
=174
2.dd#
=175
2.ee#
=176
2.d#
=177
2.r
=178
2.r
=179
20a
20a#
20b#
20cc##
20dd#
20ee#
20dd#
20dd
20b
20a#
20g##
20a#
20b#
20cc##
20dd#
=180
20ee#
20dd#
20dd
20b
20a#
20g##
20a#
20b#
20cc##
20dd#
20ee#
20dd#
20dd
20b
20a#
=181
20g##
20a#
20b#
20cc##
20dd#
20ee#
20dd#
20dd
20b
20a#
20g##
20a#
20b#
20cc##
20dd#
=182
20ee#
20dd#
20dd
20b
20a#
20g##
20a#
20b#
20cc##
20dd#
20ee#
20dd#
20dd
20b
20a#
=183
20g##
20a#
20b#
20cc##
20dd#
20ee#
20ff##
20gg#
20aa#
20bb#
20ccc##
20ddd#
20eee#
20fff##
20ggg#
=184
20aaa#
20bbb#
20cccc##
20dddd#
20eeee#
4gggg
20aa#
20bb#
20ccc##
20ddd#
20eee#
=185
4ggg
20a#
20b#
20cc##
20dd#
20ee#
4gg
=186
2.r
=187
2.r
=188
2.d#
=189
2.e
=190
2.g#
=191
2.f#
=192
8e
8d#
8f#
8e
8d#
8c#
=193
2B
4dd#[
=194
8dd#]
8cc#
8ee
8dd#
8cc#
8b
=195
2a#
4eee[
=196
8eee]
8ddd#
8fff#
8eee
8ddd#
8ccc#
=197
8bb
8aa#
8ccc#
8bb
8aa
8gg#
=198
8bb
8aa
8gg#
8ff#
8aa
8gg#
=199
8ff#
8ee
8dd#
8cc#
8b
8a#
=200
2.ee#
=201
2.dd#
=202
2.eee#
=203
2.d#
=204
2.r
=205
2.r
=206
20ddd
20ddd#
20eee#
20fff##
20ggg#
20aaa#
20ggg#
20ggg
20eee
20ddd#
20ccc##
20ddd#
20eee#
20fff##
20ggg#
=207
20aaa#
20ggg#
20ggg
20eee
20ddd#
20ccc##
20ddd#
20eee#
20fff##
20ggg#
20aaa#
20ggg#
20ggg
20eee
20ddd#
=208
20ccc##
20ddd#
20eee#
20fff##
20ggg#
20aaa#
20ggg#
20ggg
20eee
20ddd#
20ccc##
20ddd#
20eee#
20fff##
20ggg#
=209
20aaa#
20ggg#
20ggg
20eee
20ddd#
20ccc##
20ddd#
20eee#
20fff##
20ggg#
20aaa#
20ggg#
20ggg
20eee
20ddd#
=210
20ccc##
20ddd#
20eee#
20fff##
20ggg#
20bbb#
20aaa#
20ggg#
20eee#
20ddd#
4r
=211
20bb#
20aa#
20gg#
20ee#
20dd#
4r
20b#
20a#
20g#
20e#
20d#
=212
4r
20A#
20B#
20c#
20d#
20e#
20f##
20g#
20a#
20b#
20cc#
=213
20dd#
20ee#
20ff##
20gg#
20aa#
2bb#
=214
2.bb#[
=215
4bb#]
4ccc#
4ff#[
=216
4ff#]
4aa
4dd#
=217
2.r
=218
2.r
=219
2.b
=220
2b
4b[
=221
4b]
4b
4b
=222
2b
4b
=223
4cc#
4dd#
4cc#
=224
4ff#
4ee
4aa
=225
4gg#
4ccc#
4bb
=226
4eee
4ddd#
4ddd
=227
4ccc#
4bb#
4bb
=228
4aa#
4aa
4gg#
=229
4gg
4ff#
4ee#
=230
4ee
16D
16E
16G#
16B
16e
16g#
16b
16ee
=231
16gg#
16bb
16eee
16ggg#
4bbb
8bb
8gg#
=232
8ff#
8ee
8aa#
8ee
8aa
8ee
=233
4gg#
16D
16E
16G#
16B
20e
20g#
20b
20ee
20gg#
=234
20bb
20eee
20ggg#
20bbb
20eeee
4gggg#
8eee
8bb
=235
8aa
8gg#
8eee
8aa
8eee
8aa#
=236
8eee
8bb
8eee
8bb#
8eee
8ccc#
=237
8eee
8bb#
8eee
8bb
8eee
8aa#
=238
16bb
16aa
16gg#
16ee
16gg#
16ff#
16ee
16b
16ee
16b
16a
16g#
=239
16b
16a
16g#
16e
16g#
16f#
16e
16B
16e
16B
16A
16G#
=240
16B
16A
16G#
16E
16B
16A
16G#
16D#
16B
16A
16G#
16D
=241
16B
16A
16G#
16C#
16B
16A
16G#
16BB#
16B
16A
16G#
16BB
=242
16C#
16D#
16E
16F#
16G#
16A
16B
16c#
16d#
16e
16f#
16g#
=243
16a
16b
16cc#
16dd#
16ee
16ff#
16gg#
16aa
16bb
16ccc#
16ddd#
16eee
=244
16fff#
16ggg#
16aaa
16bbb
16cccc#
16dddd#
16eeee
16ffff#
4gggg#
=245
2gg#
4ff#
=246
4ee
8eeee
8bbb
8aaa
8ggg#
=247
8bbb
8ggg#
8fff#
8eee
8ggg#
8ddd#
=248
8ggg#
8ccc#
8eee
8bb
8aa
8gg#
=249
8bb
8gg#
8ff#
8ee
8gg#
8dd#
=250
8gg#
8cc#
8ee
8b
8a
8g#
=251
8b
8g#
8f#
8e
8g#
8b
=252
8ee
8ff#
8gg#
8ee
8cc#
8b
=253
8ee
8gg#
8bb
8eee
8ggg#
8bbb
=254
4eeee
4r
4r
=255
4bb
4r
4r
=256
4eee
4r
4r
==
*-
